src/basic/100/u2190-left.svg

<svg width="128" height="128" viewBox="0 0 128 128" fill="none" xmlns="http://www.w3.org/2000/svg">
<path fill-rule="evenodd" clip-rule="evenodd" d="M2.64645,65.1723l43.99995,-44l0.7072,0.7071l-43.14651,43.1465h123.79291v1h-123.79288l43.14648,43.1461l-0.7072,0.707l-43.99995,-43.9996l-0.35356,-0.3536z" fill="black"/>
</svg>

<svg width="128" height="128" viewBox="0 0 128 128" fill="none" xmlns="http://www.w3.org/2000/svg">
<path fill-rule="evenodd" clip-rule="evenodd" d="M2.64645 65.1723L46.6464 21.1723L47.3536 21.8794L4.20709 65.0259H128V66.0259H4.20712L47.3536 109.172L46.6464 109.879L2.64645 65.8794L2.29289 65.5258L2.64645 65.1723Z" fill="black"/>
</svg>
